images/form-label-checkbox.svg

<svg width="28" height="28" viewBox="0 0 28 28" fill="none" xmlns="http://www.w3.org/2000/svg">
<path d="M24.6666 0.666016H3.33329C1.86053 0.666016 0.666626 1.85992 0.666626 3.33268V24.666C0.666626 26.1388 1.86053 27.3327 3.33329 27.3327H24.6666C26.1394 27.3327 27.3333 26.1388 27.3333 24.666V3.33268C27.3333 1.85992 26.1394 0.666016 24.6666 0.666016Z" fill="#2667FF"/>
<path fill-rule="evenodd" clip-rule="evenodd" d="M21.9604 8.07805C22.3509 8.46857 22.3509 9.10174 21.9604 9.49226L11.5337 19.9189C11.1432 20.3095 10.51 20.3095 10.1195 19.9189L6.03948 15.8389C5.64895 15.4484 5.64895 14.8152 6.03948 14.4247C6.43 14.0342 7.06316 14.0342 7.45369 14.4247L10.8266 17.7976L20.5461 8.07805C20.9367 7.68753 21.5698 7.68753 21.9604 8.07805Z" fill="white"/>
</svg>

<svg xmlns="http://www.w3.org/2000/svg" width="28" height="28" fill="none"><path fill="#2667FF" d="M24.667.666H3.333A2.667 2.667 0 0 0 .667 3.333v21.333a2.667 2.667 0 0 0 2.666 2.667h21.334a2.667 2.667 0 0 0 2.666-2.667V3.333A2.667 2.667 0 0 0 24.667.666Z"/><path fill="#fff" fill-rule="evenodd" d="M21.96 8.078a1 1 0 0 1 0 1.414L11.534 19.92a1 1 0 0 1-1.415 0l-4.08-4.08a1 1 0 1 1 1.415-1.414l3.373 3.373 9.72-9.72a1 1 0 0 1 1.413 0Z" clip-rule="evenodd"/></svg>
